X:1
T:Ibstone, 66.66
T:Maria C. Tiddeman, 1875
T:Ibstone, 66.66
T:Public Domain
C:Maria C. Tiddeman, 1875
Z:Public Domain
%%score ( 1 2 ) ( 3 4 )
L:1/8
M:3/2
K:D
V:1 treble 
V:2 treble 
V:3 bass 
V:4 bass 
V:1
 D4 | [DF]2 [DG]2 [DA]4 [CE]4 | [DF]8 [FA]4 | [Fd]2 [Ec]2 [FB]4 [Ec]2 [DB]2 | [CA]8 [CA]4 | %5
 [DA]2 [EG]2 [DF]4 [CE]4 | D8 D4 | [DE]2 [DF]2 [DG]4 (F2 E2) | D8 |] %9
V:2
 D4 | x12 | x12 | x12 | x12 | x12 | D8 D4 | x8 C4 | D8 |] %9
V:3
 [D,F,]4 | [B,,D,]2 [B,,E,]2 [A,,F,]4 [A,,A,]4 | [D,A,]8 [D,A,]4 | %3
 [B,,A,]2 [C,A,]2 [D,A,]4 [E,^G,]4 | [A,,A,]8 [G,A,]4 | [F,A,]2 [C,A,]2 [D,A,]4 [A,,G,]4 | %6
 [B,,F,]8 [F,A,]4 | [G,B,]2 [F,A,]2 [E,B,]4 (A,2 G,2) | [D,F,]8 |] %9
V:4
 x4 | x12 | x12 | x12 | x12 | x12 | x12 | x8 A,,4 | x8 |] %9

